packages/ui-icons/svg/Solid/info-borderless.svg

<svg viewBox="0 0 1920 1920" version="1.1" xmlns="http://www.w3.org/2000/svg">
    <path d="M1229.92952,594.767261 C1266.57399,632.742052 1279.94501,686.094808 1273.65049,737.675873 C1264.52227,812.553116 1242.91341,882.659228 1217.55726,953.332591 C1190.42812,1028.95581 1162.89637,1104.42362 1135.22526,1179.8448 C1090.96233,1300.52957 1046.35099,1421.08225 1002.57582,1541.94574 C991.697835,1571.96347 983.940014,1604.01708 980.84308,1635.72879 C977.467421,1670.26122 1002.30484,1687.25546 1033.49097,1671.93189 C1058.46774,1659.65439 1082.77868,1642.93988 1102.33582,1623.16377 C1134.28844,1590.85373 1166.1017,1558.38828 1197.14072,1525.18462 C1212.65637,1508.5789 1228.00168,1491.78669 1243.05278,1474.74583 C1255.04566,1461.16286 1267.37145,1440.72626 1283.83166,1432.46614 C1315.00231,1416.82397 1339.05774,1455.31162 1333.41358,1482.25997 C1328.02492,1508.03312 1310.27937,1530.64327 1293.95246,1551.21735 L1292.82888,1552.63303 C1291.33423,1554.51635 1289.85424,1556.38267 1288.39964,1558.23286 C1233.5297,1628.02815 1173.35627,1695.32132 1105.09209,1752.20968 C1037.98926,1807.97909 963.484762,1855.42621 881.663754,1886.18991 C855.014634,1896.20618 827.707414,1904.44298 799.951139,1910.75269 C746.366431,1922.94472 687.153045,1922.03556 632.391501,1914.08626 C592.239746,1908.25833 556.144975,1882.64653 539.127321,1845.37886 C509.582566,1780.68106 530.146211,1700.78403 545.42184,1634.92842 C564.133896,1554.30375 592.221166,1477.54121 620.915497,1400.30998 L623.095838,1394.44335 C623.459375,1393.4654 623.822974,1392.48736 624.186617,1391.50922 L626.36886,1385.63909 C627.096355,1383.68193 627.823883,1381.72429 628.551303,1379.76611 C661.804636,1290.24911 695.98705,1201.08955 730.277857,1111.96884 C761.572379,1030.67311 792.998521,949.431764 823.967866,868.019468 C826.332034,861.803009 828.971786,855.629982 831.636822,849.461178 L832.636907,847.147998 C839.47224,831.341572 846.268156,815.530695 848.813022,799.055631 C854.921726,759.518954 826.406702,724.318257 786.82788,747.109349 C718.408236,786.509885 667.17211,845.101219 616.390988,904.053391 L610.216035,911.223775 C594.435635,929.546222 578.633674,947.829782 562.307875,965.50908 C546.2193,982.938475 527.064761,1004.54844 499.401394,984.578066 C469.879866,963.271155 478.636449,935.942048 495.414091,912.793511 C588.593106,784.213836 700.469863,663.933133 846.273536,596.010552 C907.205721,567.624648 992.386903,538.725887 1072.15619,537.777877 C1131.958,537.070754 1188.71706,552.067961 1229.92952,594.767261 Z M1321.96809,14.8260694 C1398.67141,44.6728411 1440.00774,111.359901 1440,205.243966 C1439.99226,374.432657 1257.24216,490.152033 1104.47038,417.699209 C1025.51404,380.252816 987.11205,291.497329 1006.2511,190.697453 C1032.74538,51.0991052 1190.03094,-36.5063373 1321.96809,14.8260694 Z" stroke="none" stroke-width="1" fill-rule="evenodd"/>
</svg>

<svg viewBox="0 0 1920 1920" xmlns="http://www.w3.org/2000/svg">
    <path d="M1229.93 594.767c36.644 37.975 50.015 91.328 43.72 142.909-9.128 74.877-30.737 144.983-56.093 215.657-27.129 75.623-54.66 151.09-82.332 226.512-44.263 120.685-88.874 241.237-132.65 362.1-10.877 30.018-18.635 62.072-21.732 93.784-3.376 34.532 21.462 51.526 52.648 36.203 24.977-12.278 49.288-28.992 68.845-48.768 31.952-32.31 63.766-64.776 94.805-97.98 15.515-16.605 30.86-33.397 45.912-50.438 11.993-13.583 24.318-34.02 40.779-42.28 31.17-15.642 55.226 22.846 49.582 49.794-5.39 25.773-23.135 48.383-39.462 68.957l-1.123 1.416a1559.53 1559.53 0 0 0-4.43 5.6c-54.87 69.795-115.043 137.088-183.307 193.977-67.103 55.77-141.607 103.216-223.428 133.98-26.65 10.016-53.957 18.253-81.713 24.563-53.585 12.192-112.798 11.283-167.56 3.333-40.151-5.828-76.246-31.44-93.264-68.707-29.544-64.698-8.98-144.595 6.295-210.45 18.712-80.625 46.8-157.388 75.493-234.619l2.18-5.867 1.092-2.934 2.182-5.87 2.182-5.873c33.254-89.517 67.436-178.676 101.727-267.797 31.294-81.296 62.72-162.537 93.69-243.95 2.364-6.216 5.004-12.389 7.669-18.558l1-2.313c6.835-15.806 13.631-31.617 16.176-48.092 6.109-39.537-22.406-74.738-61.985-51.947-68.42 39.4-119.656 97.992-170.437 156.944l-6.175 7.17c-15.78 18.323-31.582 36.607-47.908 54.286-16.089 17.43-35.243 39.04-62.907 19.07-29.521-21.308-20.765-48.637-3.987-71.785 93.18-128.58 205.056-248.86 350.86-316.783 60.932-28.386 146.113-57.285 225.882-58.233 59.802-.707 116.561 14.29 157.774 56.99Zm92.038-579.94c76.703 29.846 118.04 96.533 118.032 190.417-.008 169.189-182.758 284.908-335.53 212.455-78.956-37.446-117.358-126.202-98.219-227.002 26.494-139.598 183.78-227.203 315.717-175.87Z" fill-rule="evenodd"/>
</svg>
